packages/astro-components-stencil/src/icons/slideshow.svg

<svg xmlns="http://www.w3.org/2000/svg" viewBox="0 0 24 24"><g xmlns="http://www.w3.org/2000/svg" id="slideshow" fill-rule="nonzero">
            <path d="M10 9.04v5.92c0 .42.48.65.81.39l3.7-2.96a.5.5 0 000-.78l-3.7-2.96a.498.498 0 00-.81.39zM19 3H5c-1.1 0-2 .9-2 2v14c0 1.1.9 2 2 2h14c1.1 0 2-.9 2-2V5c0-1.1-.9-2-2-2zm-1 16H6c-.55 0-1-.45-1-1V6c0-.55.45-1 1-1h12c.55 0 1 .45 1 1v12c0 .55-.45 1-1 1z"/>
        </g></svg>

<svg width="24" height="24" viewBox="0 0 24 24" fill="none" xmlns="http://www.w3.org/2000/svg">
<path fill-rule="evenodd" clip-rule="evenodd" d="M19 3H5C3.9 3 3 3.9 3 5V19C3 20.1 3.9 21 5 21H19C20.1 21 21 20.1 21 19V5C21 3.9 20.1 3 19 3ZM10 9.04V14.96C10 15.38 10.48 15.61 10.81 15.35L14.51 12.39C14.76 12.19 14.76 11.81 14.51 11.61L10.81 8.65C10.48 8.39 10 8.62 10 9.04ZM6 19H18C18.55 19 19 18.55 19 18V6C19 5.45 18.55 5 18 5H6C5.45 5 5 5.45 5 6V18C5 18.55 5.45 19 6 19Z" fill="black"/>
</svg>
